X:144
T: Weihnachtslied
N: A0511
O: Europa, Mitteleuropa, Deutschland
N: J. Walthers Gsgb 1524 No. 22.
R: Romanze, Ballade, Lied, religioeses Lied
M: 4/2
L: 1/4
K: G
G | G2G2A2G2 | c2d2c4
B2d2e2d2 | c2A2G2z
G | c2B2d2A2 | G2E2D2z
D | A2A2A2B2 | c2A2G2A2 | =FGA2G3

